X:57
T:Priest and His Boots, The
R:jig
D:Patrick Street: Irish Times
Z:id:hn-jig-57
M:6/8
K:D
~e3 efe|efd cBA|dcd fed|cAc ecd|~e3 efe|efd cBA|dcd faf|1 gec dcd:|2 gec dfg||
|:afa geg|fdf ecA|dcd fed|cAc efg|afa geg|fdf ecA|dcd faf|1 gec dfg:|2 gec dcd||
P:Version 2:
efe ~e2g|fdf ecA|dcd faf|ecA Bcd|efe ~e2g|fdf ecA|dcd faf|1 gec dcd:|2 gec dfg||
|:a2f g2e|f2d ecA|dcd fed|cAc efg|a2f g2e|f2d ecA|dcd faf|1 gec dfg:|2 gec dcd||
<end>
<start>
